Obsidian-SemiLight/actions/22s/view-bank-account.svg

<svg viewBox="0 0 22 22" xmlns="http://www.w3.org/2000/svg"><path d="m3 3v2 1 13h7v-1h-6v-11h14v5h1v-9h-2v2h-2v-2h-3v2h-2v-2h-3v2h-2v-2zm2 5v1h6v-1zm0 3v1h6v-1zm6 2v6h8v-6zm1 1h6v1h-1v2h1v1h-6v-1h1v-2h-1zm3 1c-.554 0-1 .446-1 1s.446 1 1 1 1-.446 1-1-.446-1-1-1z" fill="#4d4d4d"/><path d="m12 8v1h5v-1z" fill="#da4453"/></svg>

<svg xmlns="http://www.w3.org/2000/svg" viewBox="0 0 22 22">
  <defs id="defs3051">
    <style type="text/css" id="current-color-scheme">
      .ColorScheme-Text {
        color:#4d4d4d;
      }
      </style>
  </defs>
 <path 
     style="fill:currentColor;fill-opacity:1;stroke:none" 
     d="M 3 3 L 3 5 L 3 6 L 3 19 L 10 19 L 10 18 L 4 18 L 4 7 L 18 7 L 18 12 L 19 12 L 19 3 L 17 3 L 17 5 L 15 5 L 15 3 L 12 3 L 12 5 L 10 5 L 10 3 L 7 3 L 7 5 L 5 5 L 5 3 L 3 3 z M 5 8 L 5 9 L 11 9 L 11 8 L 5 8 z M 5 11 L 5 12 L 11 12 L 11 11 L 5 11 z M 11 13 L 11 19 L 19 19 L 19 13 L 11 13 z M 12 14 L 18 14 L 18 15 L 17 15 L 17 17 L 18 17 L 18 18 L 12 18 L 12 17 L 13 17 L 13 15 L 12 15 L 12 14 z M 15 15 C 14.446 15 14 15.446 14 16 C 14 16.554 14.446 17 15 17 C 15.554 17 16 16.554 16 16 C 16 15.446 15.554 15 15 15 z "
     class="ColorScheme-Text"
     />
 <path 
     style="fill:#da4453;fill-opacity:1;stroke:none" 
     d="M 12 8 L 12 9 L 17 9 L 17 8 L 12 8 z "
     />
</svg>
